app/style/icons/no-tickets.svg

<svg viewBox="7340 1084 68.009 80" xmlns="http://www.w3.org/2000/svg"><path d="m8.1 4.458a4.5 4.5 0 0 0 4.458-4.458h5.167a4.5 4.5 0 0 0 4.458 4.458 4.5 4.5 0 0 0 4.457-4.458h5.167a4.5 4.5 0 0 0 4.458 4.458 4.5 4.5 0 0 0 4.458-4.458h5.167a4.5 4.5 0 0 0 4.458 4.458 4.462 4.462 0 0 0 4.252-4.458h5.167a4.5 4.5 0 0 0 4.458 4.458l1.925 32.116h-47.007z" fill="#8997a5" transform="translate(7340.069 1084)"/><path d="m8.1 4.458 11.043 32.116h43.868v-32.116a4.478 4.478 0 0 1 -4.356-4.458h-4.055a4.5 4.5 0 0 1 -4.458 4.458h-1.01a4.5 4.5 0 0 1 -4.458-4.458h-4.053a4.5 4.5 0 0 1 -4.458 4.458h-1.013a4.5 4.5 0 0 1 -4.457-4.458h-4.053a4.5 4.5 0 0 1 -4.458 4.458h-1.013a4.5 4.5 0 0 1 -4.457-4.458h-4.053a4.656 4.656 0 0 1 -4.559 4.458z" opacity=".39" transform="translate(7340.069 1084)"/><g fill="#c4cbd2"><path d="m24.122 55.8c-3.039-.405-6.18-.3-8.409 2.026-1.824 1.925-2.33 4.66-2.634 7.193l-.3 3.647c0 .507-.1 1.114-.1 1.621a10.642 10.642 0 0 1 -.2 1.317c0 .2-.3.912-.3 1.013-.1.1-.1.3-.2.405v.1l-.1.1h-.1a.784.784 0 0 0 -.3.1c.608-.2-.1 0-.2 0a1.5 1.5 0 0 1 -.709-.1c-3.57-.703-5.09 4.667-1.544 5.278 2.938.507 5.674.1 7.5-2.431 1.317-1.925 1.52-4.559 1.722-6.788.2-2.533.1-4.356.811-6.484v-.2l.3-.608v-.1l.1-.1c.1-.1.1-.2.2-.2l.1-.1a.768.768 0 0 0 .405-.2c.3-.1.507-.1.81-.2-.507.1.507 0 .507 0a4.543 4.543 0 0 1 1.114.1 2.973 2.973 0 0 0 3.445-1.925c.412-1.334-.399-3.259-1.918-3.464z" transform="translate(7340.055 1084.73)"/><path d="m41.206 58.751c4.053 5.572.2 18.642 9.726 20.465 3.445.709 4.964-4.66 1.418-5.37a2.722 2.722 0 0 1 -1.317-.507 4.416 4.416 0 0 1 -1.013-1.52 24.728 24.728 0 0 1 -1.22-5.064c-.405-3.445-.507-7.7-2.735-10.739-2.128-2.837-6.889-.1-4.863 2.735z" transform="translate(7340.498 1084.72)"/><path d="m59.243 17.9c6.585 1.216 8.915 9.726 7.8 15.1-.912 4.559-6.281 10.334-10.537 4.458-2.128-2.837 2.33-5.167 4.356-2.33-.405-.507-1.418-.1-1.013-.3a2.448 2.448 0 0 0 .81-.912 8.708 8.708 0 0 0 1.317-2.837 9.587 9.587 0 0 0 -.405-4.458c-.2-.912-.912-3.242-2.128-3.445a3.129 3.129 0 0 1 -2.735-2.837c0-1.317 1.114-2.735 2.533-2.432z" transform="translate(7340.697 1084.234)"/><path d="m62.028 47.516v-43.058a4.5 4.5 0 0 1 -4.457-4.458h-5.171a4.5 4.5 0 0 1 -4.458 4.458 4.5 4.5 0 0 1 -4.454-4.458h-5.065a4.5 4.5 0 0 1 -4.458 4.458 4.5 4.5 0 0 1 -4.458-4.458h-5.167a4.5 4.5 0 0 1 -4.458 4.458 4.5 4.5 0 0 1 -4.457-4.458h-5.167a4.5 4.5 0 0 1 -4.458 4.458v57.951h48.427l6.585-4.964z" transform="translate(7340.039 1084)"/></g><path d="m27.6 32.976c0 .1.1.1.1.2.811 1.621 2.128.2 3.141-.2 1.216-.405 2.938-.608 4.053.2 1.418.912 2.432 2.128 4.154.709 1.216-1.013 1.114-3.85.3-5.066-1.31-2.019-4.653-1.919-6.68-1.319-2.33.709-5.066 1.418-5.268 4.255a5.085 5.085 0 0 0 .2 1.221z" fill="#1b3751" transform="translate(7340.323 1084.356)"/><path d="m64.522 24.8c2.432 2.837 1.52 6.991-.1 9.523-.608.912-2.026-.3-1.418-1.216 1.317-1.925 2.026-5.167.2-7.4a.8.8 0 1 1 1.317-.912z" fill="#fff" opacity=".21" transform="translate(7340.788 1084.321)"/><path d="m8.1 18.6c-6.581 1.216-8.911 9.727-7.8 15.1.912 4.559 6.281 10.334 10.638 4.356 2.128-2.837-2.33-5.167-4.356-2.33.405-.507 1.418-.1 1.013-.3a2.448 2.448 0 0 1 -.811-.912 8.708 8.708 0 0 1 -1.314-2.844 9.587 9.587 0 0 1 .405-4.458c.2-.912.912-3.242 2.128-3.445a3.129 3.129 0 0 0 2.735-2.837c-.1-1.216-1.216-2.634-2.634-2.33z" fill="#c4cbd2" transform="translate(7339.964 1084.243)"/><path d="m2.42 25.4c-2.432 2.841-1.62 7 0 9.528.608.912 2.026-.3 1.418-1.114-1.216-1.925-2.026-5.167-.1-7.4a.833.833 0 1 0 -1.318-1.014z" fill="#fff" opacity=".21" transform="translate(7339.975 1084.329)"/><path d="m60.285 56.727 1.115-9.827-7.7 14.893z" fill="#8997a5" transform="translate(7340.668 1084.616)"/><path d="m15.7 18.908c-1.317 5.977 10.03 6.281 9.219.3-.1-1.013-1.621-.507-1.418.405.507 3.445-7.092 3.343-6.281-.3a.786.786 0 0 0 -1.52-.405z" fill="#1b3751" transform="translate(7340.168 1084.24)"/><path d="m42.3 19.21c.2 5.167 9.523 5.471 9.422.1a.76.76 0 0 0 -1.52 0c.1 3.343-6.281 3.141-6.383-.1-.1-1.013-1.621-1.013-1.52 0z" fill="#1b3751" transform="translate(7340.519 1084.242)"/><path d="m12.846 17.443c1.621 0 3.546-.507 3.546-3.647s-3.546-5.066-3.546-7.396c0 2.33-3.546 4.255-3.546 7.4 0 3.035 1.925 3.643 3.546 3.643z" fill="#8997a5" transform="translate(7340.085 1084.084)"/></svg>

<svg xmlns="http://www.w3.org/2000/svg" viewBox="7340 1084 68.009 80"><defs><style>.a{fill:#8997a5;}.b{opacity:0.39;}.c{fill:#c4cbd2;}.d{fill:#1b3751;}.e{opacity:0.21;}.f{fill:#fff;}</style></defs><g transform="translate(6660 850)"><g transform="translate(680 234)"><path class="a" d="M8.1,4.458A4.5,4.5,0,0,0,12.558,0h5.167a4.5,4.5,0,0,0,4.458,4.458A4.5,4.5,0,0,0,26.64,0h5.167a4.5,4.5,0,0,0,4.458,4.458A4.5,4.5,0,0,0,40.723,0H45.89a4.5,4.5,0,0,0,4.458,4.458A4.462,4.462,0,0,0,54.6,0h5.167a4.5,4.5,0,0,0,4.458,4.458l1.925,32.116H19.143Z" transform="translate(0.069)"/><g class="b" transform="translate(8.169)"><path d="M8.1,4.458,19.143,36.574H63.011V4.458A4.478,4.478,0,0,1,58.655,0H54.6a4.5,4.5,0,0,1-4.458,4.458H49.132A4.5,4.5,0,0,1,44.674,0H40.621a4.5,4.5,0,0,1-4.458,4.458H35.15A4.5,4.5,0,0,1,30.693,0H26.64a4.5,4.5,0,0,1-4.458,4.458H21.169A4.5,4.5,0,0,1,16.712,0H12.659A4.656,4.656,0,0,1,8.1,4.458Z" transform="translate(-8.1)"/></g><path class="c" d="M24.122,55.8c-3.039-.405-6.18-.3-8.409,2.026-1.824,1.925-2.33,4.66-2.634,7.193l-.3,3.647c0,.507-.1,1.114-.1,1.621a10.642,10.642,0,0,1-.2,1.317c0,.2-.3.912-.3,1.013-.1.1-.1.3-.2.405v.1l-.1.1h-.1a.784.784,0,0,0-.3.1c.608-.2-.1,0-.2,0a1.5,1.5,0,0,1-.709-.1C7,72.519,5.48,77.889,9.026,78.5c2.938.507,5.674.1,7.5-2.431,1.317-1.925,1.52-4.559,1.722-6.788.2-2.533.1-4.356.811-6.484v-.2l.3-.608v-.1l.1-.1c.1-.1.1-.2.2-.2l.1-.1a.768.768,0,0,0,.405-.2c.3-.1.507-.1.81-.2-.507.1.507,0,.507,0a4.543,4.543,0,0,1,1.114.1,2.973,2.973,0,0,0,3.445-1.925C26.452,57.93,25.641,56.005,24.122,55.8Z" transform="translate(0.055 0.73)"/><g transform="translate(41.213 55.539)"><path class="c" d="M41.206,58.751c4.053,5.572.2,18.642,9.726,20.465,3.445.709,4.964-4.66,1.418-5.37a2.722,2.722,0,0,1-1.317-.507,4.416,4.416,0,0,1-1.013-1.52A24.728,24.728,0,0,1,48.8,66.755c-.405-3.445-.507-7.7-2.735-10.739-2.128-2.837-6.889-.1-4.863,2.735Z" transform="translate(-40.715 -54.819)"/></g><g transform="translate(56.643 18.093)"><path class="c" d="M59.243,17.9c6.585,1.216,8.915,9.726,7.8,15.1-.912,4.559-6.281,10.334-10.537,4.458-2.128-2.837,2.33-5.167,4.356-2.33-.405-.507-1.418-.1-1.013-.3a2.448,2.448,0,0,0,.81-.912,8.708,8.708,0,0,0,1.317-2.837,9.587,9.587,0,0,0-.405-4.458c-.2-.912-.912-3.242-2.128-3.445a3.129,3.129,0,0,1-2.735-2.837c0-1.317,1.114-2.735,2.533-2.432Z" transform="translate(-55.946 -17.859)"/></g><path class="c" d="M62.028,47.516V4.458A4.5,4.5,0,0,1,57.571,0H52.4a4.5,4.5,0,0,1-4.458,4.458A4.5,4.5,0,0,1,43.488,0H38.423a4.5,4.5,0,0,1-4.458,4.458A4.5,4.5,0,0,1,29.507,0H24.34a4.5,4.5,0,0,1-4.458,4.458A4.5,4.5,0,0,1,15.425,0H10.258A4.5,4.5,0,0,1,5.8,4.458V62.409H54.227l6.585-4.964Z" transform="translate(0.039)"/><path class="d" d="M27.6,32.976c0,.1.1.1.1.2.811,1.621,2.128.2,3.141-.2,1.216-.405,2.938-.608,4.053.2,1.418.912,2.432,2.128,4.154.709,1.216-1.013,1.114-3.85.3-5.066C38.038,26.8,34.695,26.9,32.668,27.5c-2.33.709-5.066,1.418-5.268,4.255A5.085,5.085,0,0,0,27.6,32.976Z" transform="translate(0.323 0.356)"/><g class="e" transform="translate(63.642 24.748)"><path class="f" d="M64.522,24.8c2.432,2.837,1.52,6.991-.1,9.523-.608.912-2.026-.3-1.418-1.216,1.317-1.925,2.026-5.167.2-7.4a.8.8,0,1,1,1.317-.912Z" transform="translate(-62.854 -24.427)"/></g><g transform="translate(0 18.802)"><path class="c" d="M8.1,18.6C1.519,19.816-.811,28.327.3,33.7c.912,4.559,6.281,10.334,10.638,4.356,2.128-2.837-2.33-5.167-4.356-2.33.405-.507,1.418-.1,1.013-.3a2.448,2.448,0,0,1-.811-.912A8.708,8.708,0,0,1,5.47,31.67a9.587,9.587,0,0,1,.405-4.458c.2-.912.912-3.242,2.128-3.445a3.129,3.129,0,0,0,2.735-2.837c-.1-1.216-1.216-2.634-2.634-2.33Z" transform="translate(-0.036 -18.559)"/></g><g class="e" transform="translate(0.86 25.376)"><path class="f" d="M2.42,25.4C-.012,28.241.8,32.4,2.42,34.928c.608.912,2.026-.3,1.418-1.114-1.216-1.925-2.026-5.167-.1-7.4A.833.833,0,1,0,2.42,25.4Z" transform="translate(-0.885 -25.047)"/></g><g transform="translate(54.368 47.516)"><path class="a" d="M60.285,56.727,61.4,46.9,53.7,61.793Z" transform="translate(-53.7 -46.9)"/></g><g transform="translate(15.763 18.561)"><path class="d" d="M15.7,18.908c-1.317,5.977,10.03,6.281,9.219.3-.1-1.013-1.621-.507-1.418.405.507,3.445-7.092,3.343-6.281-.3a.786.786,0,0,0-1.52-.405Z" transform="translate(-15.595 -18.321)"/><g transform="translate(27.051 0.131)"><path class="d" d="M42.3,19.21c.2,5.167,9.523,5.471,9.422.1a.76.76,0,0,0-1.52,0c.1,3.343-6.281,3.141-6.383-.1-.1-1.013-1.621-1.013-1.52,0Z" transform="translate(-42.295 -18.45)"/></g></g><path class="a" d="M12.846,17.443c1.621,0,3.546-.507,3.546-3.647S12.846,8.73,12.846,6.4c0,2.33-3.546,4.255-3.546,7.4C9.3,16.835,11.225,17.443,12.846,17.443Z" transform="translate(0.085 0.084)"/></g></g></svg>
